X:1
T:Seek Ye First
T:John Robson Sweney
T:Seek Ye First
T:Public Domain
T:Public Domain
T:Public Domain
C:John Robson Sweney
Z:Public Domain
%%score ( 1 2 ) ( 3 4 )
L:1/8
M:6/8
K:G
V:1 treble 
V:2 treble 
V:3 bass 
V:4 bass 
V:1
 [DB]2 [DB] [Fd]2 [Ec] | [Ec]3 [DB]3 | [CB]2 [CA] [CD]2 [CA] | [B,G]3- [B,G]2 z | %4
w: 1.~Seek ye first the|king- dom;|not the things of|earth. *|
w: 2.~Seek ye first the|king- dom;|Ev- er- last- ing|love *|
w: 3.~Seek ye first the|king- dom;|seek the gift of|God. *|
 [EG]2 [_EA] [=EG]2 [CE] | [B,D]3 [B,G]3 | [^CB]2 [CA] [CE]2 [CA] | [CA]3- [CA]2 z | %8
w: Price- less are the|treas- ures|of im- mor- tal|worth. *|
w: Woos you to the|bless- ings|rrom the land a-|bove. *|
w: ’Tis the Sav- ior’s|of- fer|pur- chased by His|blood. *|
 [DB]2 [DB] [Fd]2 [Ec] | [Ec]3 [DB]3 | [_EB]2 [EF] [EB]2 [EA] | ([FA]3 [EG]3) | %12
w: Like a flit- ting|shad- ow,|time will pass a-|way, *|
w: Par- don and re-|new- al,|right- eous- ness and|peace, *|
w: Seek ye first His|glo- ry;|be it life’s sweet|aim; *|
 [EG]2 [_EA] [=EG]2 [CE] | ([B,D]2 [Ec]) [DB]3 | [CB]2 [CA] [CD]2 [CA] | [B,G]3- [B,G]2 z || %16
w: But the heav’n- ly|rich- * es|change not, nor de-|cay. *|
w: Grace for ev- ery|tri- * al,|joys that ne- ver|cease. *|
w: Him to serve and|hon- * or,|trust- ing in His|Name. *|
"^Refrain" [Gd]2 [G^c] [Ge]2 [Gd] | [Fd]3 [Fc]3 | [Dc]2 [DB] [Dd]2 [Dc] | [DB]3- [DB]2 z | %20
w: ||||
w: “Seek ye first the|king- dom,”|’tis the Mast- er’s|voice; *|
w: ||||
 [_EB]2 [EF] [EB]2 [FA] | [FA]3 [EG]3 | [GB]2 [GA] [G^c]2 [GA] | [Fd]3- [Fd]2 z | %24
w: ||||
w: In His pre- cious|pro- mise|ev- er- more re-|joice. *|
w: ||||
 [Fd]2 [Fe] [Fd]2 [DA] | [Dc]2 [DB] [DB]3 | [_EB]2 [Ec] [EB]2 [EF] | [FA]2 [EG] [EG]3 | %28
w: ||||
w: “All things else,” His|words are true,|“shall be add- ed|un- to you.”|
w: ||||
 [EG]2 [EA] [EG]2 [CE] | (D2 c) [DB]3 | [Fd]2 [Fc] [DE]2 [DF] | [DG]3- [DG]2 z |] %32
w: ||||
w: In His pre- cious|pro- * mise,|er- more re- joice.||
w: ||||
V:2
 x6 | x6 | x6 | x6 | x6 | x6 | x6 | x6 | x6 | x6 | x6 | x6 | x6 | x6 | x6 | x6 || x6 | x6 | x6 | %19
w: |||||||||||||||||||
w: |||||||||||||||||||
 x6 | x6 | x6 | x6 | x6 | x6 | x6 | x6 | x6 | x6 | D3 x3 | x6 | x6 |] %32
w: |||||||||||||
w: ||||||||||ev-|||
V:3
 (G,,D,)G, G,,2 z | (G,,C,E,) G,2 z | (D,A,)F, (D,A,)F, | (G,D,B,, G,,2) z | (C,G,)F, (G,E,)C, | %5
 (G,D,B,,) G,,3 | (A,,E,)A, (A,,E,)A, | (F,A,F, D,2) z | (G,,D,)G, G,,2 z | (G,,C,E,) G,3 | %10
 (B,,F,)B, (B,,F,)B, | (E,G,B, E,G,B,) | (C,G,)F, (G,E,)C, | (G,,D,G,) (G,,D,G,) | %14
 [D,F,]3 [D,F,]3 | (G,D,B,, G,,3) || [G,B,]2 [G,_B,] [G,C]2 [G,=B,] | [D,A,]3 [D,A,]3 | %18
 [D,A,]2 [D,G,] [D,B,]2 [D,A,] | G,3- G,2 z | [B,,F,]2 [B,,F,] [B,,F,]2 [_E,B,] | [E,B,]3 [E,B,]3 | %22
 [A,^C]2 [A,C] [A,E]2 [A,C] | [D,A,]3- [D,A,]2 z | [D,A,]2 [D,A,] [D,A,]2 [D,F,] | [F,A,]2 G, G,3 | %26
 [B,,F,]2 [B,,F,] [B,,F,]2 [B,,B,] | [_E,B,]2 [=E,B,] [E,B,]3 | [C,C]2 [C,C] [C,C]2 [C,G,] | %29
 ([B,,G,]2 [A,,F,]) [G,,G,]3 | [D,A,]2 [D,A,] [D,C]2 [D,C] | [G,,B,]3- [G,,B,]2 z |] %32
V:4
 x6 | x6 | x6 | x6 | x6 | x6 | x6 | x6 | x6 | x6 | x6 | x6 | x6 | x6 | x6 | x6 || x6 | x6 | x6 | %19
 G,3- G,2 x | x6 | x6 | x6 | x6 | x6 | x2 G, G,3 | x6 | x6 | x6 | x6 | x6 | x6 |] %32

